X: 627
T: Red Haired Lass
B: good tune book
B: tunes
M:4/4
R: reel
Q: 1/4=100
K:Gmajor
V:1 
"G"DGGF G2 BG|"Bm"G2 BG AGEG|"C"DGGF GABd|"D"egdB c2 BA|
 "G"DGGF G2 BG|"Bm"G2 BG AGEG|"C"DGGF GABd|"D"egdB c2 Bc||
 "G"d2 gd edgd|"Bm"d2 gd BGBc|"C"d2 gd edef|"D"gedB c2 Bc|
 "G"d2 gd edgd|"Bm"d2 gd BGBd|"C"c3A "G"B3A|"C"GABd "D"egdB||
% abcbook-tune_id 63dce80c760d4e13e29070a6
% abcbook-tune_composer_id 
% abcbook-link-0 https://www.youtube.com/watch?v=nxuzFCIuzGQ
% abcbook-boost 0
% abcbook-difficulty 0
% abcbook-tags good tune book
% abcbook-tablature 
% abcbook-transpose 
% abcbook-tuning 
% abcbook-lastupdated 1675478940619
% abcbook-soundfonts 
% abcbook-repeats 1


